X:1
T:Title
%%score { 1 | ( 2 3 ) }
L:1/8
M:9/8
K:D
V:1 treble nm="Grand Piano"
V:2 bass 
V:3 bass 
V:1
 z3 z3[Q:1/4=100] FFF | F3 F3 FED | [CA]6 [CG][CG][CG] | [CG]3 [CG]3 .[CG]2 [A,CE] | %4
[M:3/4] [A,DF]6 |[M:3/8] [FA][FA][FA] |[M:9/8] [FA]3 [FA]3 .[FA]2 [A,DF] | [DFA]6 [DGB][DGB][DGB] | %8
 [D^GB]3 [DGB]3 .[DGB]2 [EGd] | [EGc]6 z3 | [Fd]3 [FA]3 [FA][EG][DF] | [CA]8- [CA] | A3 A3 FD[CE] | %13
[M:3/4] [A,D]6 |] %14
V:2
 z3 z3 [D,A,D][D,A,D][D,A,D] | z3 z3 .A,3 | [A,,E,]6 [A,,A,][A,,A,][A,,A,] | %3
 [A,,A,]3 [A,,A,]3 z FA,, |[M:3/4] D,6 |[M:3/8] [D,D][D,D][D,D] | %6
[M:9/8] [D,D]3 [D,D]3 z[K:treble] B[K:bass]D, | D,6 G,G,G, | E,3 E,3 z[K:treble] cE, | A,6 z3 | %10
 [D,D]3 [D,D]3 [D,D][D,D][D,A,] | [A,,A,]8- [A,,A,] | [D,F,D]3 [D,F,D]3 [D,A,D][D,F,][A,,G,] | %13
[M:3/4] [D,F,]6 |] %14
V:3
 x9 | [D,A,D]3 [D,A,D]3 [D,D]-[D,G,D][D,F,] | x9 | z3 z3 .[A,,A,]3 |[M:3/4] x6 |[M:3/8] x3 | %6
[M:9/8] z3 z3 .[D,D]3[K:treble][K:bass] | x9 | z3 z3 .E,3[K:treble] | x9 | x9 | x9 | x9 | %13
[M:3/4] x6 |] %14

